X:1
T:Title
%%score [ ( 1 2 ) ( 3 4 ) ] { ( 5 6 ) | ( 7 8 ) }
L:1/8
Q:1/4=120
M:4/4
K:E
V:1 treble nm="Midi_74"
V:2 treble 
V:3 bass nm="Midi_74"
V:4 bass 
V:5 treble nm="Org."
V:6 treble 
V:7 bass 
V:8 bass 
V:1
 e8 | c4 B4 | e8 || G8 | A4 G4 | F4 E4 | D8 || B8 | e4 G4 | A8 || F8 | B4 E4 | %12
"^John Camidge\n(1790-1859)" (F4 A4) | G8 |] %14
V:2
 E8 | E4 E4 | G8 || =D8 | C4 E4 | C4 ^A,4 | B,8 || E8 | E4 E4 | E8 || D8 | E4 C4 | E4 D4 | E8 |] %14
V:3
 G,8 | A,4 G,4 | B,8 || B,8 | A,4 B,4 | C4 F,4 | F,8 || B,8 | G,4 C4 | C8 || (D6 B,2) | B,4 G,4 | %12
 C4 B,4 | B,8 |] %14
V:4
 E,8 | E,4 E,4 | E,8 || E,8 | A,,4 E,4 | A,4 F,4 | B,8 || G,8 | C,4 C,4 | F,8 || (B,,6 A,,2) | %11
 G,,4 C,4 | A,,4 B,,4 | E,8 |] %14
V:5
 [GBe]8 | c4 B4 | e8 || G8 | A4 G4 | F4 E4 | D8 || B8 | e4 G4 | A8 || F8 | B4 E4 | F2 G2 A4 | G8 |] %14
V:6
 E8 | [EA]4 [EG]4 | [EGB]8 || [B,=DE]8 | [A,CE]4 [B,E]4 | C4 [^A,C]4 | B,8 || E8 | [EG]4 [CE]4 | %9
 [CE]8 || [B,D]8 | [B,E]4 C4 | [CE]4 [B,D]4 | [B,E]8 |] %14
V:7
 x8 | x8 | x8 || x8 | x8 | x8 | x8 || x8 | x8 | x8 || F,8 | x8 | x8 | x8 |] %14
V:8
 [E,,E,]8 | [E,,E,]4 [E,,E,]4 | [E,,E,]8 || [E,,E,]8 | [A,,E,]4 [E,,E,]4 | [A,,E,]4 [F,,F,]4 | %6
 [B,,F,]8 || [G,,G,]8 | [C,G,]4 [C,G,]4 | [F,,F,]8 || B,,6 A,,2 | [G,,G,]4 [C,G,]4 | %12
 [A,,A,]4 [B,,F,]4 | [E,,E,]8 |] %14

